X:9374
T:Le Bout du Monde - Valse/Walzer/Waltz
C:Maxou Heintzen
Z:abc transcription Simon Wascher
N:please mail errors to simon.wascher@chello.at
M:3/4
L:1/4
K:D
F/G/|AFE|DFA|dBG|A2B/c/|
dcB|AGF|1EA>B|A2:|2Eec|d2||
|:d/e/|f/e/d/e/f/d/|B2c/d/|e/d/c/B/c/A/|F3|
FE/D/E/F/|E>FG|1BA/G/A/B/|A2:|2BA/B/c/A/|d2||


